X:1313
T:"The Merry Merchant"   (reel)   1313
C:after Mr. McFadden
N:Replaced Fermata with FINE command and plain DC at end with DC AL FINE command
B:O'Neill's Music Of Ireland (The 1850) Lyon & Healy, Chicago, 1903 edition
Z:FROM O'NEILL'S TO NOTEWORTHY, FROM NOTEWORTHY TO ABC, MIDI AND .TXT BY VINCE
BRENNAN July 2003 (HTTP://WWW.SOSYOURMOM.COM)
I:abc2nwc
M:C|
L:1/8
K:G
GBdg  (3(efg) dB|GABG AGEF|GBdg egdg|egfa gedB|
G3g  (3(efg) dB|GABG AGEF|GBdg egdg|egfa g2(dg)"^Fine"||
ea {b}ag fdef|{a}gfga bged|ea {b}ag fddf|egfa g2dg|
ea {b}ag fddf|gfga bgef|"^Shake"gfeg a2ga|bc'ba gedB"^Da Capo al Fine"B|]
